!!!SOCIAL_FUNCTION:	deer dance songs
!!!PDT:	1932
!!!OTL: No_84_The_Quail_in_the_Bush.krn
!!!REG: Southwest
!!!LANG: Non-Tone
!!!LING_GROUP: Yuman-Cochimi
**kern
*staff1
=1-
=
*clefF4
*k[f#]
*M2/4
12B\L
12B\
12B\J
8B\L
8B\J
=2||
*M3/4
12A\L
12G\
12G\J
4G\
4r
=3
8.d\L
16B\Jk
4B\
8.B\L
16A\Jk
=4
12A\L
12G\
12G\J
4G\
4r
=5
8d\L
8B\J
8B\L
8B\J
8B\L
8B\J
=6||
*M2/4
4A\
8.A\L
16A\Jk
=7||
*M3/4
12A\L
12G\
12G\J
4G\
4r
=8||
*M2/4
8d\L
16B\L
16B\JJ
8B\L
8B\J
=9
12A\L
12G\
12G\J
8G\
8r
=10
8.A\L
16B\Jk
(8.B\L
16A\Jk)
=11
8.A\L
16G\Jk
12G\L
12G\
12G\J
=12||
*M3/4
8A\L
8B\J
8A\L
8G\J
8G\L
8A\J
=13||
*M2/4
4G\
8.G\L
16G\Jk
=14
12G\L
12G\
12G\J
8G\
8r
=15:|!
2r
=16
8B\L
8B\J
8d\L
8B\J
=17
8B\L
8B\J
8B\L
8B\J
=18
8B\L
8A\J
8A\L
8A\J
=19
8A\L
8G\J
8G\
8r
=20
2r
=21
8d\L
8B\J
8B\L
8B\J
=22||
*M3/4
8B\L
8A\J
4A\
8.A\L
16A\Jk
=23
12A\L
12G\
12G\J
4G\
4r
=24||
*M2/4
8d\L
8B\J
8B\L
16B\L
16B\JJ
=25
8.A\L
16G\Jk
8G\
8r
=26
8.A\L
16B\Jk
(16B\LK
8.A\J)
=27
8.A\L
16G\Jk
16G\LL
16G\JJ
8r
=28||
*M3/4
8A\L
8B\J
8A\L
8G\J
8G\L
8A\J
=29||
*M2/4
4G\
8.G\L
16G\Jk
=30
12G\L
12G\
12G\J
4G\
==
*-
